lib/brands/icons/jb-clion.svg

<svg xmlns="http://www.w3.org/2000/svg" fill="none" aria-hidden="true" viewBox="0 0 48 48"><g id="jb-clion-Icon"><g id="Group"><path id="Vector" fill="url(#paint0_linear_94_17289)" d="M19.8377 20.5687L17.4189 21.5813L19.6127 6L27.8814 10.5563L19.8377 20.5687Z"/><path id="Vector_2" fill="url(#paint1_linear_94_17289)" d="M18.5437 27.6L19.725 6L9.31875 12.525L6 32.4375L18.5437 27.6Z"/><path id="Vector_3" fill="url(#paint2_linear_94_17289)" d="M41.2688 16.8L36.6562 7.35001L27.8813 10.5563L21.4688 17.6438L6 32.4375L17.7 40.9875L32.325 27.7125L41.2688 16.8Z"/><path id="Vector_4" fill="url(#paint3_linear_94_17289)" d="M21.1314 21.3563L19.1064 33.675L27.3189 40.0313L36.3189 42L42.0002 29.175L21.1314 21.3563Z"/><path id="Vector_5" fill="black" d="M35.25 12.75H12.75V35.25H35.25V12.75Z"/><path id="Vector_6" fill="white" d="M14.8877 31.0313H23.3252V32.4375H14.8877V31.0313ZM14.7189 20.4C14.6902 19.1084 15.1907 17.8612 16.1042 16.9477C17.0177 16.0342 18.2649 15.5338 19.5564 15.5625C21.3002 15.5625 22.3689 16.125 23.2127 17.025L21.9189 18.5438C21.1877 17.8688 20.4564 17.475 19.5564 17.475C17.9814 17.475 16.8564 18.7688 16.8564 20.4C16.8564 21.975 17.9814 23.325 19.5564 23.325C20.6252 23.325 21.3002 22.875 22.0314 22.2563L23.3252 23.55C22.3689 24.5625 21.3002 25.2375 19.5002 25.2375C18.2223 25.2376 16.9976 24.7261 16.0993 23.8173C15.201 22.9084 14.7039 21.6778 14.7189 20.4ZM24.7314 15.675H26.8127V23.2688H30.8627V25.0125H24.7314V15.675Z"/></g></g><defs><linearGradient id="paint0_linear_94_17289" x1="17.4443" x2="29.4789" y1="13.7906" y2="13.7906" gradientUnits="userSpaceOnUse"><stop stop-color="#ED358C"/><stop offset="0.16" stop-color="#E9388C"/><stop offset="0.3" stop-color="#DE418C"/><stop offset="0.43" stop-color="#CC508C"/><stop offset="0.57" stop-color="#B2658D"/><stop offset="0.7" stop-color="#90808D"/><stop offset="0.83" stop-color="#67A18E"/><stop offset="0.95" stop-color="#37C78F"/><stop offset="1" stop-color="#22D88F"/></linearGradient><linearGradient id="paint1_linear_94_17289" x1="15.1631" x2="-1.11842" y1="10.6153" y2="40.0685" gradientUnits="userSpaceOnUse"><stop offset="0.09" stop-color="#22D88F"/><stop offset="0.9" stop-color="#029DE0"/></linearGradient><linearGradient id="paint2_linear_94_17289" x1="3750.89" x2="-157.371" y1="-22215.6" y2="-26973.4" gradientUnits="userSpaceOnUse"><stop offset="0.09" stop-color="#22D88F"/><stop offset="0.9" stop-color="#029DE0"/></linearGradient><linearGradient id="paint3_linear_94_17289" x1="1386.65" x2="2291.49" y1="-15236.4" y2="-15412" gradientUnits="userSpaceOnUse"><stop offset="0.09" stop-color="#22D88F"/><stop offset="0.9" stop-color="#029DE0"/></linearGradient></defs></svg>

<svg xmlns="http://www.w3.org/2000/svg" fill="none" aria-hidden="true" viewBox="0 0 48 48"><path fill="url(#a)" d="M19.837 20.569 17.42 21.58 19.613 6l8.268 4.556-8.044 10.013Z"/><path fill="url(#b)" d="M18.544 27.6 19.725 6 9.319 12.525 6 32.438 18.544 27.6Z"/><path fill="url(#c)" d="m41.269 16.8-4.613-9.45-8.775 3.206-6.412 7.088L6 32.438l11.7 8.55 14.625-13.276L41.269 16.8Z"/><path fill="url(#d)" d="m21.131 21.356-2.025 12.319 8.213 6.356 9 1.969L42 29.175l-20.869-7.819Z"/><path fill="#000" d="M35.25 12.75h-22.5v22.5h22.5v-22.5Z"/><path fill="#fff" d="M14.887 31.031h8.438v1.407h-8.438V31.03ZM14.72 20.4a4.734 4.734 0 0 1 4.837-4.837c1.744 0 2.813.562 3.656 1.462l-1.293 1.519c-.732-.675-1.463-1.069-2.363-1.069-1.575 0-2.7 1.294-2.7 2.925 0 1.575 1.125 2.925 2.7 2.925 1.069 0 1.744-.45 2.475-1.069l1.294 1.294c-.956 1.012-2.025 1.688-3.825 1.688A4.781 4.781 0 0 1 14.72 20.4Zm10.012-4.725h2.081v7.594h4.05v1.744h-6.13v-9.338Z"/><defs><linearGradient id="a" x1="17.444" x2="29.479" y1="13.791" y2="13.791" gradientUnits="userSpaceOnUse"><stop stop-color="#ED358C"/><stop offset=".16" stop-color="#E9388C"/><stop offset=".3" stop-color="#DE418C"/><stop offset=".43" stop-color="#CC508C"/><stop offset=".57" stop-color="#B2658D"/><stop offset=".7" stop-color="#90808D"/><stop offset=".83" stop-color="#67A18E"/><stop offset=".95" stop-color="#37C78F"/><stop offset="1" stop-color="#22D88F"/></linearGradient><linearGradient id="b" x1="15.163" x2="-1.118" y1="10.615" y2="40.069" gradientUnits="userSpaceOnUse"><stop offset=".09" stop-color="#22D88F"/><stop offset=".9" stop-color="#029DE0"/></linearGradient><linearGradient id="c" x1="3750.89" x2="-157.371" y1="-22215.6" y2="-26973.4" gradientUnits="userSpaceOnUse"><stop offset=".09" stop-color="#22D88F"/><stop offset=".9" stop-color="#029DE0"/></linearGradient><linearGradient id="d" x1="1386.65" x2="2291.49" y1="-15236.4" y2="-15412" gradientUnits="userSpaceOnUse"><stop offset=".09" stop-color="#22D88F"/><stop offset=".9" stop-color="#029DE0"/></linearGradient></defs></svg>
